trunk/WorldWind/resources/milstd2525/icons/ems/effacj---------.svg

<?xml version="1.0" encoding="UTF-8" standalone="no"?>
<!--
Copyright (C) 2012 United States Government as represented by the Administrator of the
National Aeronautics and Space Administration.
All Rights Reserved.
-->

<!--
MIL-STD-2525 tactical symbol icon image. During icon composition this image is multiplied by the desired frame color 
(e.g. black), then drawn on top of the frame and fill.
-->

<svg
   xmlns:dc="http://purl.org/dc/elements/1.1/"
   xmlns:cc="http://creativecommons.org/ns#"
   xmlns:rdf="http://www.w3.org/1999/02/22-rdf-syntax-ns#"
   xmlns:svg="http://www.w3.org/2000/svg"
   xmlns="http://www.w3.org/2000/svg"
   xmlns:sodipodi="http://sodipodi.sourceforge.net/DTD/sodipodi-0.dtd"
   xmlns:inkscape="http://www.inkscape.org/namespaces/inkscape"
   height="400px"
   viewBox="0 0 400 400"
   width="400px"
   id="svg2"
   version="1.1"
   inkscape:version="0.48.2 r9819"
   sodipodi:docname="effacj---------.svg">
  <metadata
     id="metadata38">
    <rdf:RDF>
      <cc:Work
         rdf:about="">
        <dc:format>image/svg+xml</dc:format>
        <dc:type
           rdf:resource="http://purl.org/dc/dcmitype/StillImage" />
      </cc:Work>
    </rdf:RDF>
  </metadata>
  <defs
     id="defs36" />
  <sodipodi:namedview
     pagecolor="#ffffff"
     bordercolor="#666666"
     borderopacity="1"
     objecttolerance="10"
     gridtolerance="10"
     guidetolerance="10"
     inkscape:pageopacity="0"
     inkscape:pageshadow="2"
     inkscape:window-width="640"
     inkscape:window-height="480"
     id="namedview34"
     showgrid="false"
     inkscape:zoom="0.59"
     inkscape:cx="200"
     inkscape:cy="200"
     inkscape:window-x="574"
     inkscape:window-y="114"
     inkscape:window-maximized="0"
     inkscape:current-layer="svg2" />
  <text
     style="font-size:52px;font-weight:bold;text-anchor:middle;fill:#000000;font-family:Arial"
     x="200"
     y="140"
     id="text4">REL</text>
  <path
     inkscape:connector-curvature="0"
     d="m 157.81,232.467 c -4.079,1.019 -30.313,-2.496 -31.81,0 -3.522,5.87 12.62,9.849 12,16.666 -0.62,6.821 -26.769,5 -27.333,8.667 -1.73,11.244 54.028,18.209 60,20 11.033,3.31 14.489,13.345 26.666,16.667 13.019,3.55 30.872,-12.56 46,-11.334 3.214,0.261 23.762,7.096 27.334,4 13.535,-11.73 -22.724,-20.95 -27.334,-27.333 -6.435,-8.91 35.087,-10.044 -4.285,-18.19"
     style="fill:#ffffff;stroke:#000000;stroke-width:4;stroke-dasharray:10"
     id="path6" />
  <g
     transform="matrix(0,1,-1,0,324.25,68.582996)"
     id="g8">
    <rect
       height="78"
       style="fill:#ffffff;stroke:#000000;stroke-width:3;stroke-dasharray:10"
       width="105"
       x="86"
       y="87"
       id="rect10" />
    <ellipse
       sodipodi:ry="39"
       sodipodi:rx="10"
       sodipodi:cy="126"
       sodipodi:cx="82"
       cx="82"
       cy="126"
       rx="10"
       ry="39"
       style="fill:#ffffff;stroke:#000000;stroke-width:3;stroke-dasharray:10"
       transform="translate(4,0)"
       id="ellipse12"
       d="m 92,126 c 0,21.53911 -4.477153,39 -10,39 -5.522847,0 -10,-17.46089 -10,-39 0,-21.53911 4.477153,-39 10,-39 5.522847,0 10,17.46089 10,39 z" />
    <ellipse
       sodipodi:ry="39"
       sodipodi:rx="10"
       sodipodi:cy="126"
       sodipodi:cx="82"
       cx="82"
       cy="126"
       rx="10"
       ry="39"
       style="fill:#ffffff;stroke:#000000;stroke-width:3;stroke-dasharray:10"
       transform="translate(109,-0.5)"
       id="ellipse14"
       d="m 92,126 c 0,21.53911 -4.477153,39 -10,39 -5.522847,0 -10,-17.46089 -10,-39 0,-21.53911 4.477153,-39 10,-39 5.522847,0 10,17.46089 10,39 z" />
    <rect
       height="75"
       style="fill:#ffffff;stroke:none"
       transform="matrix(1.08571,0,0,0.994805,-15.08496,0.85198)"
       width="14"
       x="176"
       y="88"
       id="rect16" />
  </g>
  <g
     transform="matrix(71.276665,0,0,71.276665,106.88966,113.25586)"
     id="g18">
    <path
       inkscape:connector-curvature="0"
       d="m 0.906547,1.24253 0,0.10719 0.089323,0 0,-0.19652 C 0.984102,1.16109 0.906547,1.23159 0.906547,1.24253 z"
       style="fill:#ffffff;stroke-dasharray:10"
       id="path20" />
    <polygon
       points="1.10306,1.34972 1.21025,1.34972 1.20934,0.94237 1.10605,1.04457 "
       style="fill:#ffffff;stroke-dasharray:10"
       id="polygon22" />
    <path
       inkscape:connector-curvature="0"
       d="m 1.33531,1.34972 0.10719,0 0,-0.29924 c 0,-0.01102 -0.09409,-0.098413 -0.10719,-0.107189 z"
       style="fill:#ffffff;stroke-dasharray:10"
       id="path24" />
    <path
       inkscape:connector-curvature="0"
       d="m 1.54969,1.34972 0.08932,0 0,-0.09826 c 0,-0.01707 -0.00137,-0.00162 0.00359,-0.0125 L 1.54969,1.1532 z"
       style="fill:#ffffff;stroke-dasharray:10"
       id="path26" />
    <polygon
       points="0.790134,1.36342 1.27167,1.82876 1.75513,1.36312 "
       style="fill:#ffffff;stroke-dasharray:10"
       id="polygon28" />
    <path
       inkscape:connector-curvature="0"
       d="M 0.790134,1.36342 1.75513,1.36312 1.27167,1.82876 z M 1.33531,0.94329 C 1.34841,0.952066 1.4425,1.03946 1.4425,1.05048 l 0,0.29924 -0.10719,0 z m -0.12597,-9.17e-4 9.1e-4,0.407347 -0.10719,0 L 1.10605,1.04457 1.20934,0.942372 z M 0.906547,1.24253 c 0,-0.01094 0.077555,-0.08144 0.089323,-0.08933 l 0,0.19652 -0.089323,0 z M 1.54969,1.1532 1.6426,1.23895 C 1.63764,1.24984 1.63901,1.23439 1.63901,1.25146 l 0,0.09826 -0.08932,0 z M 1.78608,1.35832 1.27338,0.857813 0.761902,1.35689 1.27335,1.85499 z"
       style="fill:#000000;stroke-dasharray:10"
       id="path30" />
  </g>
  <path
     inkscape:connector-curvature="0"
     d="m 250.707,244.61 -4.572,-1.429"
     style="fill:none;stroke:#000000;stroke-width:1;stroke-dasharray:10"
     id="path32" />
</svg>

<?xml version="1.0"?>
<!--
Copyright (C) 2012 United States Government as represented by the Administrator of the
National Aeronautics and Space Administration.
All Rights Reserved.
-->

<!DOCTYPE svg PUBLIC "-//W3C//DTD SVG 1.1//EN" "http://www.w3.org/Graphics/SVG/1.1/DTD/svg11.dtd" >
<!--
MIL-STD-2525 tactical symbol icon image. During icon composition this image is multiplied by the desired frame color 
(e.g. black), then drawn on top of the frame and fill.
-->
<svg xmlns:xlink="http://www.w3.org/1999/xlink" height="400px" viewBox="0 0 400 400" width="400px"><text style="fill:rgb(0,0,0);font-family:Arial;font-size:52;font-weight:bold;text-anchor:middle" x="200" y="140">REL</text><path d="M155.81 228.467 C151.731 229.486 125.497 225.971 124 228.467 C120.478 234.337 136.62    238.316 136 245.133 C135.38 251.954 109.231 250.133 108.667 253.8 C106.937    265.044 162.695 272.009 168.667 273.8 C179.7 277.11 183.156 287.145 195.333    290.467 C208.352 294.017 226.205 277.907 241.333 279.133 C244.547 279.394 265.095    286.229 268.667 283.133 C282.202 271.403 245.943 262.183 241.333 255.8    C234.898 246.89 276.42 245.756 237.048 237.61" style="fill:rgb(255,255,255);stroke:rgb(0,0,0);stroke-width:4" transform="matrix(1 0 0 1 0 0) translate(1 0) translate(1 0) translate(0 1) translate(0 1) translate(0 1) translate(0 1)"/><g transform="matrix(6.12303e-017 1 -1 6.12303e-017 273.25 -56.75) translate(121.333 -50) translate(1 0) translate(1 0) translate(0 -1) translate(1 0) translate(-1 0) translate(1 0) translate(1 0)"><rect height="78" style="fill:rgb(255,255,255);stroke:rgb(0,0,0);stroke-width:3" transform="matrix(1 0 0 1 0 0)" width="105" x="86" y="87"/><ellipse cx="82" cy="126" rx="10" ry="39" style="fill:rgb(255,255,255);stroke:rgb(0,0,0);stroke-width:3" transform="matrix(1 0 0 1 0 0) translate(1 0) translate(1 0) translate(1 0) translate(1 0) translate(1 0) translate(1 0) translate(1 0) translate(-1 0) translate(-1 0) translate(-1 0)"/><ellipse cx="82" cy="126" rx="10" ry="39" style="fill:rgb(255,255,255);stroke:rgb(0,0,0);stroke-width:3" transform="matrix(1 0 0 1 98 40) translate(9 -40.5) translate(1 0) translate(1 0) translate(0 1) translate(1 0) translate(-1 0) translate(0 -1)"/><rect height="75" style="fill:rgb(255,255,255);stroke:none;stroke-width:1" transform="matrix(1 0 0 1 0 0) translate(176 125.5) scale(1.08571 1) translate(-176 -125.5) translate(183 164) scale(1 0.994805) translate(-183 -164)" width="14" x="176" y="88"/></g><g transform="scale(85) translate(0.72 0.73) translate(-0.66 -0.54) translate(1.36471 0.658824) translate(0.0117647 0) translate(0.0117647 0) translate(0.0117647 0) translate(0.0117647 0) translate(0 0.0117647) translate(0 0.0117647) translate(0 0.0117647) translate(0 0.0117647) translate(0 0.0117647) translate(0 0.0117647) translate(0.0117647 0) translate(0 0.0117647) translate(0 0.0117647) translate(0 0.0117647) translate(0 0.0117647) translate(0 -0.0117647) translate(-2.28235 -1.50588) translate(1.82745 1.59216) translate(0.761902 0.857813) scale(0.838549 0.838549) translate(-0.761902 -0.857813) translate(0.0140298 0) translate(0.0140298 0) translate(0.0140298 0) translate(0.0140298 0) translate(0.0140298 0) translate(0.0140298 0) translate(0.0140298 0) translate(0.0140298 0) translate(0 0.0140298) translate(0 0.0140298) translate(0 0.0140298) translate(0 0.0140298) translate(0 0.0140298) translate(0 0.0140298) translate(0 0.0140298) translate(0.0140298 0) translate(0 0.0140298) translate(0 -0.0140298) translate(0 0.0140298) translate(0 0.0140298) translate(0 0.0140298) translate(0 0.0140298) translate(0 0.0140298) translate(0 0.0140298)"><path d="M0.906547 1.24253 L0.906547 1.34972 L0.99587 1.34972 L0.99587 1.1532 C0.984102 1.16109     0.906547 1.23159 0.906547 1.24253 z" style="fill:rgb(255,255,255)"/><polygon points="1.10605,1.04457 1.10306,1.34972 1.21025,1.34972 1.20934,0.94237" style="fill:rgb(255,255,255)"/><path d="M1.33531 1.34972 L1.4425 1.34972 L1.4425 1.05048 C1.4425 1.03946 1.34841 0.952067     1.33531 0.943291 z" style="fill:rgb(255,255,255)"/><path d="M1.54969 1.34972 L1.63901 1.34972 L1.63901 1.25146 C1.63901 1.23439 1.63764 1.24984     1.6426 1.23896 L1.54969 1.1532 z" style="fill:rgb(255,255,255)"/><polygon points="1.27167,1.82876 1.75513,1.36312 0.790134,1.36342" style="fill:rgb(255,255,255)"/><path d="M0.790134 1.36342 L1.75513 1.36312 L1.27167 1.82876 zM1.33531 0.94329 C1.34841 0.952066     1.4425 1.03946 1.4425 1.05048 L1.4425 1.34972 L1.33531 1.34972 zM1.20934     0.942373 L1.21025 1.34972 L1.10306 1.34972 L1.10605 1.04457 L1.20934 0.942372     zM0.906547 1.24253 C0.906547 1.23159 0.984102 1.16109 0.99587 1.1532 L0.99587     1.34972 L0.906547 1.34972 zM1.54969 1.1532 L1.6426 1.23895 C1.63764     1.24984 1.63901 1.23439 1.63901 1.25146 L1.63901 1.34972 L1.54969 1.34972 zM1.78608     1.35832 L1.27338 0.857813 L0.761902 1.35689 L1.27335 1.85499 z" style="fill:rgb(0,0,0)"/></g><path d="M250.707 244.61 L246.135 243.181" style="fill:none;stroke:rgb(0,0,0);stroke-width:1" transform="matrix(1 0 0 1 0 0)"/></svg>
